X: 1
T: Will ye gang ta the Hielands?
R: waltz
Z: John Chambers <jc:trillian.mit.edu>
M: 3/4
L: 1/8
K: D
F>E | "D"D4 F>G | "F#m"AF-F2 E>D | "Bm"EF- F4- | F4 "A7"F>E |
w: Will ye gang ta the Hie-lands,* Lie-zy Lind-say?* Will ye
| "D"D4 F>G |  "F#m"AF-F2 A2 | "G"B6 | "A7"c4 d2 |
w: gang ta the Hie-lands* wi me? Will ye
| "D"D4 F>G | "F#m"AF-F2 E>D | "Bm"EF- F4- | "A7"F4 A2 |
w: gang ta the Hie-lands,* Lie-zy Lind-say,* my
| "G"B2 d3 B | "A7"A3 F E2 | "D"D6- | D4 |]
w: bride and my dar-lin ta be?
W:
W: Will ye gang ta the Hielands, Liezy Lindsay?
W: Will ye gang ta the Hielands wi me?
W: Will ye gang ta the Hielands, Liezy Lindsay,
W: My bride and my darlin ta be?
W:
W: Ah, noo, Lassie, I think ye know little
W: If ye say that ye dont know me,
W: For my name, it is Ronald MacDonald,
W: A chieftain of high degree.
W:
W: Noo shes ta'en up the skirt o green satin,
W: She's furled it up roond her knee,
W: And she's gone wi' Lord Ronald MacDonald,
W: His bride and his darlin' ta be.
